!!!OTL: Der Bauer ins Holz (38), S. 127f
!!!id: T0165
**kern
*clefG2
*k[f#]
*G:
{8d
=1
4g
8g
4f#
8f#
=2
4e
8e
4d}
=3
{8d
=4
8g
8g
8g
8a
8g
8a
=5
2b}
8r
=6
{8d
=7
8cc
8cc
8cc
8cc
8dd
8cc
=8
4b
8g
4a}
=9
{8a
=10
8b
8dd
8b
8a
8g
8a
=11
8g
8d
8d
4g}
=12
{8a
=13
8b
8dd
8b
8a
8g
8a
=14
2g}
8r
==
*-
!!!minrhy: 8
!!!meters: 6/8 ]  ZZ[5
!!!cut: Der Bauer ins Holz (38), S. 127f
!!!reg: Luxemburg
!!!trd: Singendes Volk, Esch-Alzette 1937 posth.
!!!rhy1: X  X_XX_X  X_XX_
!!!rhy2: X  XXXXXX  X__0
!!!key: T0165  08  G 6/8 ]  ZZ[5
!!!mod: HEPTATONIK IONISCH]  AMBITUS[8
!!!kad: -53211
!!!akz: 1-7-6-5_1233_4432_3211_3211_
!!!fot: 'a__b__as"as"as"
!!!for: 'a__b__bw_bw_b__
!!!fok: '^__/__^a_~d_^d_
!! PHRAS[AUFTAKTIG]
!!!fkt: Liebeslieder
!!!bem: Godbringen, Johann Trierweiler, 1908
!! THILL, Mathias:
!! PR[45] 2K[0] 2G[7] 3K[7] 3G[3] 4A[7] 4Ü[0] 5A[0] 6K[0] 6G[0]
!! 7K[0] 7G[0] 8A[0] MEHR[0] SI[24] ABS[29] SR[7] SP[17]
!! ST[8] 2k[3] 2g[17] 3k[0] 3g[0] 4d[3] 4ü[0] 5d[3] 6k[3] 6g[0]
!! 7k[0] 7g[0] 8d[0] mehr[0] si[31] dm[-7] sr[21] sp[10]
!! 1F[6] 2F[91] 3F[3] 4F[0] LF[0] 2P[0] 3P[0] 4P[0] TRI[0] DF[3] AB[32]
!! TF[0] U3K[0] U3[0] U4[0] U4Ü[0] U5[0] U6K[0] U6[0] U7K[0] U7[3]
!! N1[10] N2K[0] N2[10] N3K[0] N3[13] N4[7] N4Ü[0] N5[47] N6K[0] N6[7]
!!!n7k: 0] N7[0] O1[3] O2K[0] O2[0] O3K[0] O3[0] HÖ[0
